X:301
T:Of O the Arts Vo(?). RH.301
R:march
S:Rev.R.Harrison’s MS,c1815,Cumbria
O:England
A:Temple Sowerby,Cumbria
Z:vmp.Simon Wilson. Review PJH, 2008.
M:C
L:1/8
Q:2/4=60
K:D
A|d>dd>e dBBb|afed B3A|\
d>dd>e dBBf|(ab/c’/) d’>f a3b/c’/|!
d’c’ba bafb|afed B3A|\
d>dd>e dAdb|afef d3:|!
|:A|FAdA FAdf|e>f g/f/e/d/ B3A|\
FAdA FAdf|ab/c’/ d’f a3b/c’/|!
d’c’ba bafb|afed B3A|d>dd>e dAdb|afe>f d3:|

